X:23
T:Mary Jessie 'Big Hughie'
R:reel
C:Paul S. Cranford
O:Cape Breton Island
S:http://www.cranfordpub.com
D:currently unrecorded
B:currently unpublished in book form
Z:psc, (updated 9/9/06)
N:
H:                                                        copyrights Cranford Publications, SOCAN
L:1/8
Q:333
M:C|
K:Bb
f|bBfB bagf|dfec dBBd|eF F/F/F edcB|ABcd efga|
bBfB bagf|dfec dBBd|eFcF ABcd|ecAc B2 B:|
|:=e|f2 bf dBcd|edcB AFF=e|f2 bf dBfd|geaf {f} b2 (3(fga)|
bagf dBBd|edcB AFFA|GBFB DFBd|ecAc B2 B:|
